X:979
T:Reel 979
L:1/8
M: 4/4
K: G Major
G2|DGGBAGBc|dGBGAGEG|DGGBcAAg|dBcABGAF|DG(3GFGDGBd|cBABcdeg|dg(3gfgedBG|ABcAG2|(3def|g2gefgaf|g2bgagef|gfgefgfa|gedBA2Gd|gfgefgaf|gabgagef|gfgefgfd|egfagedB|.abc